src/img/icons/sort-alpha.svg

<svg width="32" height="32" viewBox="0 0 32 32" fill="none" xmlns="http://www.w3.org/2000/svg">
<path d="M5.75344 19.4196L4.59724 22.3566C4.53569 22.5143 4.42942 22.6456 4.27843 22.7504C4.12744 22.8553 3.96155 22.9077 3.78075 22.9077C3.46146 22.9077 3.21214 22.7782 3.03278 22.5193C2.85343 22.2603 2.82698 21.9862 2.95344 21.697L7.85344 9.64338C7.91643 9.47749 8.02114 9.34417 8.16756 9.24343C8.31422 9.14269 8.48083 9.09232 8.6674 9.09232H9.34577C9.53618 9.09232 9.70376 9.14197 9.8485 9.24127C9.99299 9.34056 10.0985 9.4746 10.1651 9.64338L15.0071 21.675C15.1285 21.9683 15.1007 22.2471 14.9238 22.5113C14.7468 22.7756 14.4992 22.9077 14.1809 22.9077C13.9825 22.9077 13.8063 22.8521 13.6522 22.7411C13.498 22.6302 13.3871 22.4879 13.3193 22.3141L12.2226 19.4196H5.75344ZM6.34705 17.8328H11.577L9.04896 11.1934H8.88992L6.34705 17.8328ZM21.161 21.3007H28.3229C28.5465 21.3007 28.7364 21.3789 28.8924 21.5354C29.0484 21.692 29.1264 21.8824 29.1264 22.1067C29.1264 22.3313 29.0484 22.521 28.8924 22.6758C28.7364 22.8304 28.5465 22.9077 28.3229 22.9077H19.7527C19.5989 22.9077 19.4693 22.8556 19.364 22.7515C19.2586 22.6474 19.206 22.5193 19.206 22.3671V21.4864C19.206 21.3626 19.2278 21.2415 19.2713 21.1232C19.3148 21.0047 19.3698 20.898 19.4364 20.803L27.144 10.6993H20.474C20.2502 10.6993 20.0602 10.6211 19.9042 10.4646C19.7482 10.308 19.6701 10.1176 19.6701 9.8933C19.6701 9.66874 19.7482 9.47905 19.9042 9.32421C20.0602 9.16962 20.2502 9.09232 20.474 9.09232H28.4928C28.6534 9.09232 28.7871 9.14546 28.8938 9.25173C29.0008 9.35799 29.0543 9.49107 29.0543 9.65095V10.5284C29.0543 10.6522 29.0326 10.7733 28.989 10.8916C28.9455 11.0101 28.8905 11.1168 28.8239 11.2118L21.161 21.3007ZM13.5487 5.34348C13.4183 5.34348 13.3295 5.28722 13.2821 5.1747C13.2348 5.06219 13.2623 4.95484 13.3647 4.85265L16.0443 2.17311C16.1597 2.0577 16.2967 2 16.4554 2C16.6141 2 16.7484 2.05939 16.8582 2.17816L19.5327 4.85265C19.6349 4.95484 19.6623 5.06219 19.615 5.1747C19.5676 5.28722 19.4788 5.34348 19.3484 5.34348H13.5487ZM16.0389 29.8218L13.3644 27.1473C13.2622 27.0452 13.2348 26.9378 13.2821 26.8253C13.3295 26.7128 13.4183 26.6565 13.5487 26.6565H19.3484C19.4788 26.6565 19.5676 26.7128 19.615 26.8253C19.6623 26.9378 19.6348 27.0452 19.5324 27.1473L16.8528 29.8269C16.7374 29.9423 16.6004 30 16.4417 30C16.283 30 16.1487 29.9406 16.0389 29.8218Z" fill="#131212"/>
</svg>

<svg xmlns="http://www.w3.org/2000/svg" viewBox="0 0 32 32">
  <path fill="currentColor" d="m5.753 19.42-1.156 2.937a.851.851 0 0 1-.319.393.853.853 0 0 1-.497.158.86.86 0 0 1-.748-.389.798.798 0 0 1-.08-.822l4.9-12.054a.862.862 0 0 1 .814-.551h.679a.857.857 0 0 1 .82.551l4.841 12.032a.842.842 0 0 1-.083.836.845.845 0 0 1-.743.397.882.882 0 0 1-.529-.167.935.935 0 0 1-.333-.427l-1.096-2.894h-6.47Zm.594-1.587h5.23l-2.528-6.64h-.16l-2.542 6.64ZM21.161 21.3h7.162c.224 0 .413.078.57.234a.78.78 0 0 1 .233.572.77.77 0 0 1-.234.569.779.779 0 0 1-.57.232h-8.57a.532.532 0 0 1-.388-.157.519.519 0 0 1-.158-.384v-.88c0-.124.022-.245.065-.364a1.44 1.44 0 0 1 .165-.32l7.708-10.104h-6.67a.774.774 0 0 1-.57-.234.78.78 0 0 1-.234-.572c0-.224.078-.414.234-.569a.78.78 0 0 1 .57-.232h8.019a.545.545 0 0 1 .561.559v.877c0 .124-.021.245-.065.364a1.387 1.387 0 0 1-.165.32L21.16 21.3ZM13.549 5.343c-.13 0-.22-.056-.267-.168-.047-.113-.02-.22.083-.322l2.68-2.68a.562.562 0 0 1 .813.005l2.675 2.675c.102.102.13.21.082.322-.047.112-.136.168-.267.168h-5.8Zm2.49 24.479-2.675-2.675c-.102-.102-.13-.21-.082-.322.047-.112.136-.168.267-.168h5.8c.13 0 .219.056.266.168.047.113.02.22-.083.322l-2.68 2.68a.562.562 0 0 1-.813-.005Z"/>
</svg>
